src/symbols/alphanum/1F198.svg

<svg id="emoji" viewBox="0 0 72 72" xmlns="http://www.w3.org/2000/svg">
  <g id="grid">
    <path fill="#b3b3b3" d="M68,4V68H4V4H68m4-4H0V72H72V0Z"/>
    <path fill="none" stroke="#00a5ff" stroke-miterlimit="10" stroke-width="0.1" d="M12.923,10.9583H59.0769A1.9231,1.9231,0,0,1,61,12.8814V59.0352a1.9231,1.9231,0,0,1-1.9231,1.9231H12.9231A1.9231,1.9231,0,0,1,11,59.0352V12.8813A1.923,1.923,0,0,1,12.923,10.9583Z"/>
    <rect x="16" y="4" rx="2.2537" width="40" height="64" fill="none" stroke="#00a5ff" stroke-miterlimit="10" stroke-width="0.1"/>
    <rect x="16" y="4" rx="2.2537" width="40" height="64" transform="translate(72) rotate(90)" fill="none" stroke="#00a5ff" stroke-miterlimit="10" stroke-width="0.1"/>
    <circle cx="36" cy="36" r="29" fill="none" stroke="#00a5ff" stroke-miterlimit="10" stroke-width="0.1"/>
  </g>
  <g id="color">
    <path fill="#D22F27" stroke="none" stroke-miterlimit="10" stroke-width="2" d="M59.0349,60H12.9651 C12.4343,60,12,59.5657,12,59.0349V12.9651C12,12.4343,12.4343,12,12.9651,12h46.0698C59.5657,12,60,12.4343,60,12.9651v46.0698 C60,59.5657,59.5657,60,59.0349,60z"/>
  </g>
  <g id="hair"/>
  <g id="skin"/>
  <g id="skin-shadow"/>
  <g id="line">
    <path fill="none" stroke="#000000" stroke-miterlimit="10" stroke-width="2" d="M59.0349,60H12.9651 C12.4343,60,12,59.5657,12,59.0349V12.9651C12,12.4343,12.4343,12,12.9651,12h46.0698C59.5657,12,60,12.4343,60,12.9651v46.0698 C60,59.5657,59.5657,60,59.0349,60z"/>
    <path fill="none" stroke="#000000" stroke-linecap="round" stroke-linejoin="round" stroke-miterlimit="10" stroke-width="2" d="M36.5,39.4713L36.5,39.4713c-1.5779,0-2.8571-1.2792-2.8571-2.8571v-2.2857c0-1.5779,1.2792-2.8571,2.8571-2.8571l0,0 c1.5779,0,2.8571,1.2792,2.8571,2.8571v2.2857C39.3571,38.1921,38.0779,39.4713,36.5,39.4713z"/>
    <path fill="none" stroke="#000000" stroke-linecap="round" stroke-linejoin="round" stroke-miterlimit="10" stroke-width="2" d="M29.984,33.0621c-0.2341-0.9105-1.2458-1.5954-2.4585-1.5954l0,0c-1.386,0-2.5096,0.8946-2.5096,1.9981 c0,1.1035,1.1235,1.9981,2.5096,1.9981l-0.051,0.0074c1.386,0,2.5096,0.8946,2.5096,1.9981c0,1.1035-1.1235,1.9981-2.5096,1.9981 l0,0c-1.2127,0-2.2244-0.6849-2.4585-1.5954"/>
    <path fill="none" stroke="#000000" stroke-linecap="round" stroke-linejoin="round" stroke-miterlimit="10" stroke-width="2" d="M47.984,33.0621c-0.2341-0.9105-1.2458-1.5954-2.4585-1.5954l0,0c-1.386,0-2.5096,0.8946-2.5096,1.9981 s1.1235,1.9981,2.5096,1.9981l-0.051,0.0074c1.386,0,2.5096,0.8946,2.5096,1.9981c0,1.1035-1.1235,1.9981-2.5096,1.9981l0,0 c-1.2127,0-2.2244-0.6849-2.4585-1.5954"/>
  </g>
</svg>

<svg viewBox="0 0 72 72" xmlns="http://www.w3.org/2000/svg"><path fill="#b3b3b3" d="M68 4v64H4V4h64m4-4H0v72h72V0z"/><path fill="none" stroke="#00a5ff" stroke-miterlimit="10" stroke-width=".1" d="M12.923 10.958h46.154A1.923 1.923 0 0161 12.881v46.154a1.923 1.923 0 01-1.923 1.923H12.923A1.923 1.923 0 0111 59.035V12.881a1.923 1.923 0 011.923-1.923z"/><rect x="16" y="4" rx="2.254" width="40" height="64" fill="none" stroke="#00a5ff" stroke-miterlimit="10" stroke-width=".1"/><rect x="16" y="4" rx="2.254" width="40" height="64" transform="rotate(90 36 36)" fill="none" stroke="#00a5ff" stroke-miterlimit="10" stroke-width=".1"/><circle cx="36" cy="36" r="29" fill="none" stroke="#00a5ff" stroke-miterlimit="10" stroke-width=".1"/><g stroke-linecap="round" stroke-miterlimit="10" stroke-width="6" stroke="#fff" fill="none" stroke-linejoin="round"><path d="M59.035 60h-46.07a.968.968 0 01-.965-.965v-46.07c0-.53.434-.965.965-.965h46.07c.53 0 .965.434.965.965v46.07c0 .53-.434.965-.965.965z"/><path d="M36.5 39.471h0a2.857 2.857 0 01-2.857-2.857v-2.286a2.857 2.857 0 012.857-2.857h0a2.857 2.857 0 012.857 2.857v2.286a2.857 2.857 0 01-2.857 2.857zm-6.516-6.409c-.234-.91-1.246-1.595-2.458-1.595h0c-1.386 0-2.51.894-2.51 1.998 0 1.103 1.123 1.998 2.51 1.998l-.051.007c1.386 0 2.51.895 2.51 1.998 0 1.104-1.124 1.998-2.51 1.998h0c-1.213 0-2.225-.684-2.459-1.595m22.968-4.809c-.234-.91-1.246-1.595-2.458-1.595h0c-1.387 0-2.51.894-2.51 1.998s1.123 1.998 2.51 1.998l-.052.007c1.387 0 2.51.895 2.51 1.998 0 1.104-1.123 1.998-2.51 1.998h0c-1.212 0-2.224-.684-2.458-1.595"/></g><path fill="#D22F27" d="M59.035 60h-46.07a.968.968 0 01-.965-.965v-46.07c0-.53.434-.965.965-.965h46.07c.53 0 .965.434.965.965v46.07c0 .53-.434.965-.965.965z"/><g fill="none" stroke="#000" stroke-miterlimit="10" stroke-width="2"><path d="M59.035 60h-46.07a.968.968 0 01-.965-.965v-46.07c0-.53.434-.965.965-.965h46.07c.53 0 .965.434.965.965v46.07c0 .53-.434.965-.965.965z"/><path stroke-linecap="round" stroke-linejoin="round" d="M36.5 39.471h0a2.857 2.857 0 01-2.857-2.857v-2.286a2.857 2.857 0 012.857-2.857h0a2.857 2.857 0 012.857 2.857v2.286a2.857 2.857 0 01-2.857 2.857zm-6.516-6.409c-.234-.91-1.246-1.595-2.458-1.595h0c-1.386 0-2.51.894-2.51 1.998 0 1.103 1.123 1.998 2.51 1.998l-.051.007c1.386 0 2.51.895 2.51 1.998 0 1.104-1.124 1.998-2.51 1.998h0c-1.213 0-2.225-.684-2.459-1.595m22.968-4.809c-.234-.91-1.246-1.595-2.458-1.595h0c-1.387 0-2.51.894-2.51 1.998s1.123 1.998 2.51 1.998l-.052.007c1.387 0 2.51.895 2.51 1.998 0 1.104-1.123 1.998-2.51 1.998h0c-1.212 0-2.224-.684-2.458-1.595"/></g></svg>
